app/img/azamat/profile/icon4.svg

<svg width="32" height="33" viewBox="0 0 32 33" fill="none" xmlns="http://www.w3.org/2000/svg">
<path fill-rule="evenodd" clip-rule="evenodd" d="M26.1653 18.8129C24.5866 19.3724 22.8036 18.9706 21.6206 17.7876L19.8316 16.0006L20.8205 15.0117H21.2364C23.1757 15.0117 24.9863 14.0714 26.1154 12.5493L29.5667 16.0013L27.7804 17.7876C27.3186 18.25 26.774 18.5952 26.1653 18.8129ZM23.0657 25.5976C22.4139 25.5976 21.7856 25.4567 21.2005 25.1783C19.6872 24.4597 18.7085 22.9141 18.7085 21.2403V18.7139H20.1106L20.4038 19.0064C21.5592 20.1625 23.1257 20.784 24.7172 20.784C25.0091 20.784 25.3017 20.7584 25.5922 20.7159V25.5976H23.0657ZM14.2125 27.7816C13.7514 27.3206 13.4083 26.7779 13.1926 26.1672C12.6297 24.5905 13.0301 22.8069 14.2125 21.6219L15.9988 19.8356L16.9883 20.8244V21.2397C16.9883 23.175 17.9273 24.9849 19.4501 26.1194L15.9995 29.57L14.2125 27.7816ZM6.40521 23.0698C6.40521 22.4166 6.54677 21.7904 6.82786 21.2039C7.54306 19.6913 9.08738 18.7139 10.7611 18.7139H13.2883V20.1126L12.995 20.4058C11.6273 21.7769 11.0126 23.7209 11.2883 25.5976H6.40521V23.0698ZM4.2197 14.2173C4.68346 13.7528 5.2261 13.4091 5.83277 13.1947C7.41215 12.6325 9.19644 13.0343 10.3795 14.218L12.1658 16.0036L11.1769 16.9932H10.761C8.82435 16.9932 7.01511 17.9322 5.88333 19.4536L2.43338 16.0036L4.2197 14.2173ZM8.93437 6.40784C9.58688 6.40784 10.2144 6.54872 10.7996 6.82644C12.3115 7.54501 13.2883 9.09068 13.2883 10.7644V13.2909H11.8889L11.597 12.9983C10.2279 11.6299 8.28388 11.0138 6.40521 11.2889V6.40784H8.93437ZM15.9986 2.4342L17.7876 4.22254C18.2521 4.68699 18.5959 5.22962 18.8102 5.83629C19.3717 7.41364 18.97 9.19861 17.7876 10.383L15.9993 12.17L15.0091 11.1804V10.7652C15.0091 8.82989 14.0714 7.02066 12.5493 5.8855L15.9986 2.4342ZM16.9882 16.9903V18.389L15.9987 17.3995L15.0091 18.389V16.9903H13.6104L14.6 16.0008L13.6104 15.0112H15.0091V13.6118L15.9987 14.6014L16.9882 13.6125V15.0112H18.387L17.3974 16.0014L18.3876 16.9903H16.9882ZM25.5922 8.93497C25.5922 9.58613 25.4506 10.2117 25.1695 10.7988C24.457 12.3128 22.9134 13.2909 21.2363 13.2909H18.7085V11.8949L19.0057 11.5989C20.3721 10.2292 20.9875 8.28448 20.7139 6.40784H25.5922V8.93497ZM32 16.002L26.9626 10.9633C27.1945 10.3161 27.3131 9.636 27.3131 8.93563V4.68756H20.1948C19.9002 4.06741 19.5019 3.50388 19.0051 3.0064L15.9987 0L10.9646 5.03674C10.3148 4.80553 9.63532 4.68756 8.93428 4.68756H4.68419V11.8092C4.06404 12.1038 3.49983 12.5015 3.00371 12.999L0 16.002L5.03472 21.0367C4.80283 21.6859 4.68419 22.3667 4.68419 23.0684V27.3165H11.8086C12.1031 27.938 12.5002 28.5022 12.9949 28.997L15.9987 32.004L21.0354 26.9673C21.6852 27.1985 22.3647 27.3165 23.0657 27.3165H27.3131V20.1962C27.9366 19.8989 28.5015 19.5012 28.997 19.0051L32 16.002Z" fill="#25B072"/>
</svg>

<svg width="32" height="33" fill="none" xmlns="http://www.w3.org/2000/svg"><path fill-rule="evenodd" clip-rule="evenodd" d="M26.165 18.813a4.384 4.384 0 0 1-4.544-1.025L19.83 16l.99-.99h.415c1.94 0 3.75-.94 4.88-2.462l3.45 3.452-1.786 1.787a4.33 4.33 0 0 1-1.615 1.025Zm-3.1 6.785a4.31 4.31 0 0 1-1.864-.42 4.38 4.38 0 0 1-2.492-3.938v-2.526h1.402l.293.292a6.106 6.106 0 0 0 4.313 1.778c.292 0 .585-.026.875-.068v4.882h-2.526Zm-8.853 2.184a4.283 4.283 0 0 1-1.02-1.615 4.38 4.38 0 0 1 1.02-4.545L16 19.836l.99.988v.416a6.11 6.11 0 0 0 2.461 4.88L16 29.57l-1.787-1.788ZM6.405 23.07a4.37 4.37 0 0 1 4.356-4.356h2.527v1.399l-.293.293a6.114 6.114 0 0 0-1.707 5.192H6.405V23.07ZM4.22 14.217a4.28 4.28 0 0 1 1.613-1.022 4.38 4.38 0 0 1 4.546 1.023l1.787 1.786-.99.99h-.415a6.104 6.104 0 0 0-4.878 2.46l-3.45-3.45 1.787-1.787Zm4.714-7.81c.653 0 1.28.142 1.866.42a4.38 4.38 0 0 1 2.488 3.937v2.527h-1.4l-.291-.293a6.111 6.111 0 0 0-5.192-1.71v-4.88h2.53ZM16 2.435l1.789 1.789a4.286 4.286 0 0 1 1.022 1.613 4.385 4.385 0 0 1-1.022 4.547l-1.789 1.787-.99-.99v-.415a6.112 6.112 0 0 0-2.46-4.88L16 2.436Zm.99 14.556v1.399l-.99-.99-.99.99V16.99H13.61l.99-.99-.99-.989h1.4v-1.4l.989.99.99-.989v1.4h1.398l-.99.99.99.988h-1.399Zm8.603-8.055c0 .651-.141 1.277-.422 1.864a4.362 4.362 0 0 1-3.934 2.492H18.71v-1.396l.297-.296a6.122 6.122 0 0 0 1.708-5.191h4.878v2.527ZM32 16.002l-5.037-5.039c.232-.647.35-1.327.35-2.027V4.688h-7.118a6.037 6.037 0 0 0-1.19-1.682L16 0l-5.034 5.037a6.025 6.025 0 0 0-2.03-.35h-4.25v7.122A6 6 0 0 0 3.003 13L0 16.002l5.035 5.035c-.232.649-.35 1.33-.35 2.031v4.248h7.124a6.005 6.005 0 0 0 1.186 1.681l3.004 3.007 5.036-5.037c.65.232 1.33.35 2.03.35h4.248v-7.12a6.047 6.047 0 0 0 1.684-1.192L32 16.002Z" fill="#25B072"/></svg>
